src/svgs/online-tutorials.svg

<svg width="30" height="30" viewBox="0 0 30 30" fill="none" xmlns="http://www.w3.org/2000/svg">
<g clip-path="url(#clip0)">
<path d="M11.1709 10.4057C11.4136 10.4057 11.6104 10.209 11.6104 9.96625V9.75391C11.6104 9.51115 11.4137 9.31445 11.1709 9.31445C10.9282 9.31445 10.7314 9.51115 10.7314 9.75391V9.96625C10.7314 10.209 10.9282 10.4057 11.1709 10.4057Z" fill="white"/>
<path d="M14.1348 10.4057C14.3775 10.4057 14.5742 10.209 14.5742 9.96625V9.75391C14.5742 9.51115 14.3775 9.31445 14.1348 9.31445C13.8921 9.31445 13.6953 9.51115 13.6953 9.75391V9.96625C13.6954 10.209 13.8921 10.4057 14.1348 10.4057Z" fill="white"/>
<path d="M29.2671 5.67911C28.902 5.04401 28.4239 4.49967 27.8603 4.06608C27.2972 3.6319 26.6486 3.30963 25.9414 3.11926C23.753 2.52981 21.5107 3.35539 20.193 5.03463H17.8893C17.7949 4.33039 17.544 3.67912 17.1743 3.20996C17.0594 3.06418 16.8653 3.00641 16.6894 3.0653C15.3694 3.50791 14.475 3.40561 13.6859 3.31549C12.6687 3.19924 11.7844 3.09811 10.7438 4.29336C9.98566 4.34803 9.42393 4.59284 9.04342 5.03457H0.710156C0.31875 5.03457 0 5.35625 0 5.75118V21.9313C0 22.3262 0.31875 22.6478 0.710156 22.6478H8.71852L8.15713 24.3799H7.6902C6.94928 24.3799 6.34647 24.9833 6.34647 25.725V26.4001C6.34647 26.7687 6.64635 27.0685 7.0149 27.0685H18.2892C18.6578 27.0685 18.9577 26.7687 18.9577 26.4001V25.725C18.9577 24.9833 18.3548 24.3799 17.6139 24.3799H17.147L16.5856 22.6478H24.5944C24.9858 22.6478 25.3039 22.3261 25.3039 21.9313V19.8597C25.3039 19.8585 25.3041 19.8574 25.3041 19.8562C25.3041 19.8549 25.3039 19.8538 25.3039 19.8526V13.8426C25.9795 13.7442 26.6381 13.5174 27.248 13.1664C28.5183 12.4358 29.4277 11.2546 29.8085 9.8402C30.1899 8.42645 29.9977 6.94819 29.2671 5.67911V5.67911ZM10.9693 5.16196C11.0977 5.15838 11.2181 5.09885 11.2989 4.99901C12.0922 4.01774 12.5914 4.07487 13.586 4.1886C14.3617 4.27731 15.3132 4.38606 16.6477 3.99905C17.1939 4.95764 17.2955 6.7468 16.2391 7.82106C14.0981 8.22348 13.4861 7.8033 12.8937 7.39678C12.5953 7.19194 12.2867 6.98018 11.8343 6.86604C11.6017 6.80756 11.3727 6.78161 11.1495 6.78161C10.4437 6.78161 9.79758 7.04129 9.29654 7.35383C9.32853 5.94032 9.56057 5.20086 10.9693 5.16196ZM9.29273 8.45235C9.74449 8.04037 10.6674 7.47858 11.6196 7.71834C11.9191 7.79387 12.1403 7.94569 12.3964 8.12147C12.8905 8.46061 13.4718 8.85975 14.7425 8.85963C15.1047 8.85963 15.5232 8.82705 16.0113 8.75159V9.64286C16.0113 10.8645 14.8148 12.3795 13.451 12.8851C12.861 13.1036 12.4429 13.1035 11.8532 12.8852C10.4892 12.3795 9.29268 10.8645 9.29268 9.64286V8.45235H9.29273ZM14.5395 14.1964C14.0569 14.7199 13.379 15.0225 12.6512 15.0225C11.9243 15.0225 11.2469 14.7199 10.7645 14.1963C10.9696 14.0098 11.1033 13.7717 11.197 13.5595C11.3125 13.6149 11.4295 13.6653 11.5479 13.7092C11.94 13.8545 12.296 13.9271 12.652 13.9271C13.008 13.9271 13.3641 13.8545 13.7563 13.7091C13.8746 13.6653 13.9916 13.6148 14.107 13.5595C14.2008 13.7717 14.3346 14.0099 14.5395 14.1964ZM0.878906 5.91348H8.58744C8.4092 6.53235 8.41084 7.25229 8.4133 8.00791C8.41359 8.09416 8.41389 9.6428 8.41389 9.6428C8.41389 10.8567 9.2673 12.241 10.4366 13.1003C10.3497 13.3209 10.2254 13.5734 10.0301 13.6264C9.87902 13.6676 9.72146 13.708 9.55459 13.7507C8.74951 13.9571 7.83703 14.1908 7.09875 14.6685C6.19447 15.2537 5.73598 16.1022 5.73598 17.1904V19.4168H0.878906V5.91348ZM17.6139 25.2588C17.8703 25.2588 18.0788 25.468 18.0788 25.7251V26.1897H7.22537V25.7251C7.22537 25.468 7.43391 25.2588 7.6902 25.2588H11.6607C11.9034 25.2588 12.1001 25.0621 12.1001 24.8193C12.1001 24.5766 11.9034 24.3799 11.6607 24.3799H9.08104L9.64236 22.6478H15.6617L16.2231 24.3799H13.6999C13.4572 24.3799 13.2604 24.5766 13.2604 24.8193C13.2604 25.0621 13.4571 25.2588 13.6999 25.2588H17.6139ZM24.425 21.7689H0.878906V20.2956H11.8714C12.1141 20.2956 12.3108 20.0989 12.3108 19.8561C12.3108 19.6134 12.1141 19.4166 11.8714 19.4166H9.43213V18.5523C9.43213 18.3095 9.23543 18.1128 8.99268 18.1128C8.74992 18.1128 8.55322 18.3095 8.55322 18.5523V19.4166H6.61477V17.1903C6.61477 15.5387 7.92363 15.0757 9.77262 14.602C9.824 14.5888 9.87434 14.5759 9.9242 14.5631C10.5758 15.4065 11.5731 15.9013 12.6512 15.9013C13.7302 15.9013 14.7281 15.4065 15.3798 14.5631C15.4297 14.5759 15.48 14.5889 15.5314 14.602C17.3804 15.0757 18.6893 15.5387 18.6893 17.1903V19.4166H16.7508V18.5523C16.7508 18.3095 16.5541 18.1128 16.3114 18.1128C16.0686 18.1128 15.8719 18.3095 15.8719 18.5523V19.4166H13.8972C13.6545 19.4166 13.4578 19.6133 13.4578 19.8561C13.4578 20.0989 13.6545 20.2956 13.8972 20.2956H24.425V21.7689H24.425ZM24.425 19.4167H19.5682V17.1904C19.5682 16.1021 19.1097 15.2536 18.2054 14.6684C17.4671 14.1907 16.5546 13.957 15.7495 13.7507C15.5827 13.708 15.4251 13.6675 15.2733 13.6261C15.0786 13.5733 14.9544 13.3209 14.8675 13.1003C16.0367 12.241 16.8901 10.8567 16.8901 9.64274V8.41168C17.5075 7.77037 17.8696 6.89475 17.9233 5.91342H19.6304C19.4582 6.24916 19.3187 6.60717 19.2168 6.98563C18.8078 8.50549 19.0709 10.1244 19.9375 11.4368C20.0793 11.9026 19.7429 12.4657 19.4031 12.8143C19.2361 12.986 19.2367 13.259 19.4048 13.4295C19.6843 13.7137 20.3581 13.9135 21.0108 13.9135C21.0542 13.9135 21.097 13.9129 21.1397 13.9112C21.6577 13.8895 22.0948 13.743 22.4235 13.4829C22.6373 13.5707 22.8588 13.6463 23.0862 13.7079C23.5291 13.8274 23.9779 13.8907 24.425 13.8989V19.4167H24.425ZM28.9601 9.61116C28.6402 10.7994 27.8762 11.7913 26.8097 12.4048C26.3357 12.6778 25.8272 12.8606 25.3039 12.9521C25.0145 13.003 24.7204 13.0253 24.425 13.0189C24.0547 13.0112 23.6827 12.9591 23.3165 12.8601C23.0394 12.7845 22.7722 12.6855 22.5226 12.5659C22.341 12.4792 22.1236 12.5261 21.9953 12.6808C21.7867 12.9304 21.4404 13.0071 21.1862 13.0282C20.9008 13.0511 20.6254 13.0142 20.4133 12.9614C20.8305 12.3403 20.9594 11.6566 20.7467 11.0865C20.7344 11.0537 20.7186 11.0226 20.6992 10.9939C19.9487 9.8842 19.7179 8.50672 20.0658 7.2142C20.1936 6.74077 20.391 6.30424 20.6447 5.91348C20.8557 5.58711 21.1053 5.29297 21.3859 5.03457C22.5114 3.99752 24.1286 3.54108 25.7123 3.96764C26.8999 4.28756 27.8919 5.05098 28.5053 6.11733C29.1188 7.18315 29.2799 8.42411 28.9601 9.61116Z" fill="white"/>
<path d="M24.5126 6.44248C23.7191 5.81605 22.6883 5.81798 22.0593 6.46838C21.3084 7.24668 21.3084 8.51312 22.0593 9.29143C22.0618 9.29406 22.0644 9.2967 22.067 9.29928L24.0522 11.2658C24.1733 11.3857 24.3383 11.4877 24.5126 11.4877C24.6869 11.4877 24.8519 11.3857 24.9729 11.2658L26.7193 9.53477L26.9581 9.29922C26.9608 9.2967 26.9634 9.29406 26.9659 9.29148C27.7169 8.51312 27.7169 7.24668 26.9655 6.46797C26.3373 5.81845 25.3052 5.8171 24.5126 6.44248V6.44248ZM26.3368 8.6776L24.5125 10.4847L22.9229 8.90898L22.6882 8.6776C22.2654 8.23551 22.2666 7.5192 22.6913 7.07898C23.0618 6.69601 23.6662 6.85504 24.0494 7.20133C24.0789 7.22752 24.1023 7.24961 24.1213 7.2676C24.2 7.34166 24.3187 7.45351 24.5125 7.45351C24.7063 7.45351 24.825 7.34166 24.9037 7.2676C24.9227 7.24961 24.9462 7.22752 24.9776 7.19957C25.3591 6.85574 25.9639 6.69666 26.3334 7.07869C26.7585 7.51926 26.7596 8.23551 26.3368 8.6776V8.6776Z" fill="white"/>
</g>
<defs>
<clipPath id="clip0">
<rect width="30" height="30" fill="white"/>
</clipPath>
</defs>
</svg>

<svg width="30" height="30" fill="none" xmlns="http://www.w3.org/2000/svg"><g clip-path="url(#a)" fill="#fff"><path d="M11.17 10.406a.44.44 0 0 0 .44-.44v-.212a.44.44 0 1 0-.879 0v.212c0 .243.197.44.44.44ZM14.135 10.406a.44.44 0 0 0 .44-.44v-.212a.44.44 0 1 0-.88 0v.212c0 .243.197.44.44.44Z"/><path d="M29.267 5.68a5.467 5.467 0 0 0-3.326-2.56 5.495 5.495 0 0 0-5.748 1.915h-2.304c-.094-.705-.345-1.356-.715-1.825a.44.44 0 0 0-.485-.145c-1.32.443-2.214.34-3.003.25-1.017-.116-1.902-.217-2.942.978-.758.055-1.32.3-1.7.742H.71A.714.714 0 0 0 0 5.75v16.18c0 .395.319.717.71.717H8.72l-.562 1.732H7.69c-.74 0-1.344.603-1.344 1.345v.675c0 .369.3.669.669.669h11.274a.67.67 0 0 0 .669-.669v-.675c0-.742-.603-1.345-1.344-1.345h-.467l-.561-1.732h8.008c.392 0 .71-.322.71-.717V13.843a5.477 5.477 0 0 0 1.944-.677 5.445 5.445 0 0 0 2.56-3.326 5.444 5.444 0 0 0-.54-4.16ZM10.97 5.161a.44.44 0 0 0 .33-.163c.793-.981 1.292-.924 2.287-.81.776.088 1.727.197 3.062-.19.546.959.648 2.748-.409 3.822-2.14.402-2.753-.018-3.345-.424-.299-.205-.607-.417-1.06-.531a2.8 2.8 0 0 0-.684-.084c-.706 0-1.352.26-1.853.572.032-1.414.264-2.153 1.672-2.192Zm-1.676 3.29c.451-.412 1.374-.973 2.327-.734.3.076.52.228.776.403.494.34 1.076.739 2.346.739.363 0 .781-.033 1.27-.108v.89c0 1.223-1.197 2.738-2.561 3.243-.59.219-1.008.219-1.598 0-1.364-.505-2.56-2.02-2.56-3.242v-1.19Zm5.247 5.744a2.559 2.559 0 0 1-1.889.827 2.556 2.556 0 0 1-1.886-.827 1.87 1.87 0 0 0 .432-.636c.116.055.233.105.35.15.393.144.749.217 1.105.217s.712-.072 1.104-.218c.119-.044.236-.094.351-.15.094.213.228.45.433.637ZM.879 5.913h7.708c-.178.62-.176 1.34-.174 2.095v1.635c0 1.214.854 2.598 2.024 3.457-.087.22-.212.473-.407.526-.151.042-.309.082-.475.125-.805.206-1.718.44-2.456.918-.905.585-1.363 1.433-1.363 2.521v2.227H.879V5.913ZM17.614 25.26c.256 0 .465.209.465.466v.465H7.225v-.465c0-.257.209-.466.465-.466h3.97a.44.44 0 1 0 0-.88H9.082l.561-1.731h6.02l.561 1.732H13.7a.44.44 0 1 0 0 .879h3.914Zm6.811-3.49H.879v-1.473H11.87a.44.44 0 1 0 0-.88H9.432v-.864a.44.44 0 1 0-.879 0v.865H6.615V17.19c0-1.651 1.309-2.114 3.158-2.588l.151-.039a3.432 3.432 0 0 0 2.727 1.338 3.434 3.434 0 0 0 2.729-1.338l.151.039c1.85.474 3.158.937 3.158 2.588v2.227h-1.938v-.865a.44.44 0 1 0-.88 0v.865h-1.974a.44.44 0 1 0 0 .879h10.528v1.473Zm0-2.352h-4.857V17.19c0-1.088-.458-1.936-1.363-2.522-.738-.477-1.65-.711-2.455-.917a31.79 31.79 0 0 1-.477-.125c-.194-.053-.319-.305-.405-.526 1.169-.859 2.022-2.243 2.022-3.457V8.412c.617-.642.98-1.517 1.033-2.499h1.707a5.487 5.487 0 0 0 .307 5.523c.142.467-.194 1.03-.534 1.378a.44.44 0 0 0 .002.616c.28.284.953.484 1.606.484l.129-.003c.518-.021.955-.168 1.284-.428a5.524 5.524 0 0 0 2.002.416v5.518h-.001ZM28.96 9.61a4.574 4.574 0 0 1-2.15 2.794 4.6 4.6 0 0 1-2.385.614 4.612 4.612 0 0 1-1.902-.453.44.44 0 0 0-.528.115c-.208.25-.555.326-.809.347a2.46 2.46 0 0 1-.773-.067c.418-.62.546-1.304.334-1.875a.442.442 0 0 0-.048-.092 4.605 4.605 0 0 1-.054-5.08 4.61 4.61 0 0 1 5.068-1.946 4.573 4.573 0 0 1 2.792 2.15 4.573 4.573 0 0 1 .455 3.493Z"/><path d="M24.513 6.442c-.794-.626-1.825-.624-2.454.026a2.05 2.05 0 0 0 .008 2.831l1.985 1.967c.121.12.286.222.46.222.175 0 .34-.102.46-.222l1.747-1.731.24-.236a2.05 2.05 0 0 0 .007-2.831c-.629-.65-1.66-.65-2.453-.026Zm1.824 2.236-1.825 1.807-1.59-1.576-.234-.231a1.164 1.164 0 0 1 .003-1.599c.37-.383.975-.224 1.358.122l.072.067c.079.074.198.186.392.186.193 0 .312-.112.39-.186l.075-.068c.381-.344.986-.503 1.355-.121.426.44.427 1.157.004 1.599Z"/></g><defs><clipPath id="a"><path fill="#fff" d="M0 0h30v30H0z"/></clipPath></defs></svg>
